!!!OTL: Carrito Carbonero
**kern
!!pagebreak:original
*clefG2
*k[]
*C:
*M6/8
=1
!LO:TX:t=[quarter]=120
16ccLL
16ee
16dd
16cc
16b
16ddJJ
16ccLL
16b
16a
16cc
16b
16aJJ
=2
8.gL
16bk
8ddJ
4.gg
=3
16ffLL
16aa
16gg
16ff
16ee
16ggJJ
16ffLL
16ee
16dd
16ff
16ee
16ddJJ
=4
8.ccL
16cck
8ccJ
8dd
4ee
!!linebreak:original
=5
16ccLL
16ee
16dd
16cc
16b
16ddJJ
16ccLL
16b
16a
16cc
16b
16aJJ
=6
8.gL
16bk
8ddJ
4.gg
=7
16ffLL
16aa
16gg
16ff
16ee
16ggJJ
16ffLL
16ee
16dd
16ff
16ee
16ddJJ
=8
4.cc
8r
4b
=9
4.cc
8r
4b
=10
(4.cc
4cc)
8r
!!linebreak:original
=11
8.gL
16gk
8gJ
8ff
4ee
=12
4dd
4dd
8ffL
8eeJ
=13
8.ddL
16cck
8bJ
8cc
4dd
=14
(4.ee
4ee)
8r
=15
8.ccL
16cck
8bJ
8ccL
8b
8ccJ
=16
4dd
4b
8bL
8ccJ
=17
8.ddL
16gk
8gJ
8g
4a
!!linebreak:original
=18
(4.g
4g)
8r
=19
8.ccL
16cck
8bJ
8ccL
8b
8ccJ
=20
4dd
4b
8bL
8ccJ
=21
8.ddL
16gk
8gJ
8g
4a
=22
(4.g
4g)
8r
=23
8.gL
16gk
8gJ
8ff
4ee
=24
4dd
4dd
8ffL
8eeJ
!!linebreak:original
=25
8.ddL
16cck
8bJ
8cc
4dd
=26
(4.ee
4ee)
8r
=27
8.ccL
16cck
8bJ
8ccL
8b
8ccJ
=28
4dd
4b
8bL
8ccJ
=29
8.ddL
16gk
8gJ
8g
4a
=30
(4.g
4g)
8r
=31
8.ccL
16cck
8bJ
8ccL
8b
8ccJ
!!linebreak:original
=32
4dd
4b
8bL
8ccJ
=33
8.ddL
16gk
8gJ
8g
4a
=34
(4.g
4g)
8r
=35
8gL
8g
8gJ
8g 8ff
4g 4ee
=36
4b 4dd
4b 4dd
8gL 8ff
8gJ 8ee
=37
8bL 8dd
8g 8cc
8gJ 8b
8g 8cc
4b 4dd
=38
(4.cc 4.ee
4cc 4ee)
8r
!!linebreak:original
=39
8fL 8a
8a 8cc
8aJ 8b
8aL 8cc
8a 8b
8aJ 8cc
=40
4b 4dd
4g 4b
8gL 8b
8gJ 8cc
=41
8bL 8dd
8e 8g
8eJ 8g
8e 8g
4f 4a
=42
(4.e 4.g
4e 4g)
8r
=43
8.aL 8.cc
16ak 16cc
8aJ 8b
8aL 8cc
8a 8b
8aJ 8cc
=44
4b 4dd
4g 4b
8gL 8b
8gJ 8cc
=45
8gL 8dd
8g 8b
8gJ 8cc
8b 8ee
4g 4dd
!!linebreak:original
=46
(4.g 4.cc
4g 4cc)
8r
=47
8.ggL
16ggk
8ggJ
8fff
4eee
=48
4ddd
4ddd
8fffL
8eeeJ
=49
8.dddL
16ccck
8bbJ
8ccc
4ddd
=50
(4.eee
4eee)
8r
=51
8.cccL
16ccck
8bbJ
8cccL
8bb
8cccJ
=52
4ddd
4bb
8bbL
8cccJ
!!pagebreak:original
=53
8.dddL
16ggk
8ggJ
8gg
4aa
=54
(4.gg
4gg)
8r
=55
8.ccL
16cck
8bJ
8ccL
8b
8ccJ
=56
4dd
4b
8bL
8ccJ
=57
8ddL
8b
8gJ
8g
4f
=58
(4.e
4e)
8r
==
*-